X: 31431
T: Paddy Ryan's Nightmare
R: reel
M: 4/4
K: Gmajor
DG G/G/G BGAF|DGGF GDB,C|DGGF GABc|
dgeg fdcA|BG G/G/G BGAF|DGGF GDB,G,|
A,B,CD EFGB|1 cAFA GAGE:|2 cAFA GABc||
dg g/g/g dgbg|g/g/g bg agfg|eaaB cdea|
agab agfe|dg g/g/g dgbg|g/g/g bg agfe|
dega agdB|1 cAFA G2 Bc:|2 cAFA G3 z||

